school/img/country/AW.svg

<svg width="13" height="12" viewBox="0 0 13 12" fill="none" xmlns="http://www.w3.org/2000/svg">
<rect width="13" height="12" rx="2" fill="white"/>
<mask id="mask0" mask-type="alpha" maskUnits="userSpaceOnUse" x="0" y="0" width="13" height="12">
<rect width="13" height="12" rx="2" fill="white"/>
</mask>
<g mask="url(#mask0)">
<g filter="url(#filter0_d)">
<rect width="13" height="12" fill="#4189DD"/>
</g>
<path d="M2.73279 1.42752L2.47702 0.794079L2.22126 1.42752L1.9448 2.1122L1.41499 2.46946L0.924832 2.79999L1.41499 3.13052L1.9448 3.48778L2.22126 4.17246L2.47702 4.8059L2.73279 4.17246L3.00924 3.48778L3.53905 3.13052L4.02922 2.79999L3.53905 2.46946L3.00924 2.1122L2.73279 1.42752Z" fill="#D21034" stroke="white" stroke-width="0.666667"/>
<rect y="8.79999" width="13" height="0.799998" fill="#F9D616"/>
<rect y="7.20001" width="13" height="0.8" fill="#F9D616"/>
</g>
<defs>
<filter id="filter0_d" x="-1" y="0" width="15" height="14" filterUnits="userSpaceOnUse" color-interpolation-filters="sRGB">
<feFlood flood-opacity="0" result="BackgroundImageFix"/>
<feColorMatrix in="SourceAlpha" type="matrix" values="0 0 0 0 0 0 0 0 0 0 0 0 0 0 0 0 0 0 127 0"/>
<feOffset dy="1"/>
<feGaussianBlur stdDeviation="0.5"/>
<feColorMatrix type="matrix" values="0 0 0 0 0 0 0 0 0 0 0 0 0 0 0 0 0 0 0.16 0"/>
<feBlend mode="normal" in2="BackgroundImageFix" result="effect1_dropShadow"/>
<feBlend mode="normal" in="SourceGraphic" in2="effect1_dropShadow" result="shape"/>
</filter>
</defs>
</svg>

<svg width="13" height="12" fill="none" xmlns="http://www.w3.org/2000/svg"><rect width="13" height="12" rx="2" fill="#fff"/><mask id="a" maskUnits="userSpaceOnUse" x="0" y="0" width="13" height="12"><rect width="13" height="12" rx="2" fill="#fff"/></mask><g mask="url(#a)"><g filter="url(#filter0_d)"><path fill="#4189DD" d="M0 0h13v12H0z"/></g><path d="M2.733 1.428L2.477.794l-.256.634-.276.684-.53.357-.49.331.49.33.53.358.276.684.256.634.256-.634.276-.684.53-.357.49-.331-.49-.33-.53-.358-.276-.684z" fill="#D21034" stroke="#fff" stroke-width=".667"/><path fill="#F9D616" d="M0 8.8h13v.8H0zm0-1.6h13V8H0z"/></g><defs><filter id="filter0_d" x="-1" y="0" width="15" height="14" filterUnits="userSpaceOnUse" color-interpolation-filters="sRGB"><feFlood flood-opacity="0" result="BackgroundImageFix"/><feColorMatrix in="SourceAlpha" values="0 0 0 0 0 0 0 0 0 0 0 0 0 0 0 0 0 0 127 0"/><feOffset dy="1"/><feGaussianBlur stdDeviation=".5"/><feColorMatrix values="0 0 0 0 0 0 0 0 0 0 0 0 0 0 0 0 0 0 0.16 0"/><feBlend in2="BackgroundImageFix" result="effect1_dropShadow"/><feBlend in="SourceGraphic" in2="effect1_dropShadow" result="shape"/></filter></defs></svg>
